X:131
T:Sproule's Rule
R:reel
C: 2007, 2010 L.E. McCullough 
M:4/4
L:1/8
K:Ador
|: E~A3 B~A3 | edcA B3A | BAFE D~G3 | DGBG AGFG |
E~A3 B~A3  | edef ~g3f | e~B3 gedB |1 GA (3BAG ~A3G:|2 ~G2BG ~A3d|]
|: e~g3 a3g | (3fga fd ~e3d | B~E3 EDEF | ~G2BG  ~A2cd |
e~g3 a3g | (3fga bg ~a3g | e~B3 gedB |1 GA (3BAG ~A3d:|2 ~G2BG ~A3G|]

